images/youtube.svg

<svg width="40" height="40" viewBox="0 0 40 40" fill="none" xmlns="http://www.w3.org/2000/svg">
<path d="M23.206 19.6658L18.714 17.5698C18.322 17.3878 18 17.5918 18 18.0258V21.9738C18 22.4078 18.322 22.6118 18.714 22.4298L23.204 20.3338C23.598 20.1498 23.598 19.8498 23.206 19.6658ZM20 0.799805C9.396 0.799805 0.799995 9.39581 0.799995 19.9998C0.799995 30.6038 9.396 39.1998 20 39.1998C30.604 39.1998 39.2 30.6038 39.2 19.9998C39.2 9.39581 30.604 0.799805 20 0.799805ZM20 27.7998C10.172 27.7998 10 26.9138 10 19.9998C10 13.0858 10.172 12.1998 20 12.1998C29.828 12.1998 30 13.0858 30 19.9998C30 26.9138 29.828 27.7998 20 27.7998Z" fill="black"/>
</svg>

<svg width="40" height="40" fill="none" xmlns="http://www.w3.org/2000/svg"><path d="m23.206 19.666-4.492-2.096c-.392-.182-.714.022-.714.456v3.948c0 .434.322.638.714.456l4.49-2.096c.394-.184.394-.484.002-.668ZM20 .8C9.396.8.8 9.396.8 20S9.396 39.2 20 39.2 39.2 30.604 39.2 20 30.604.8 20 .8Zm0 27c-9.828 0-10-.886-10-7.8s.172-7.8 10-7.8 10 .886 10 7.8-.172 7.8-10 7.8Z" fill="#000"/></svg>
